**harmony	**harte	**kern	**silbe	**kern	**silbe	**rhyme	**timestamp	**phrase
*M4/4	*M4/4	*ICvox	*	*ICvox	*	*	*	*
*	*	*VRlead	*	*VRharmonize*VRbacking	*	*	*	*
*	*	*Hstimme	*	*Nstimme	*	*	*	*
*C:	*C:	*C:	*	*C:	*	*	*	*
*	*	*M4/4	*	*M4/4	*	*	*	*
*	*	*clefG2	*	*clefC3	*	*	*	*
1r;	1r	r;	.	r;	.	.	0	.
.	.	4e	frame!	.	.	.	.	.
.	.	2r	.	.	.	.	.	.
1r;	1r	r;	.	r;	.	.	.	.
1r;	1r	r;	.	r;	.	.	.	.
=1	=1	=1	=1	=1	=1	=1	=1	=1
*>Letter>A	*>Letter>A	*>Letter>A	*>Letter>A	*>Letter>A	*>Letter>A	*>Letter>A	*>Letter>A	*>Letter>A
*>Label>Intro	*>Label>Intro	*>Label>Intro	*>Label>Intro	*>Label>Intro	*>Label>Intro	*>Label>Intro	*>Label>Intro	*>Label>Intro
=2	=2	=2	=2	=2	=2	=2	=2	=2
1CM	C:maj	1r	.	1r	.	.	.	.
=3	=3	=3	=3	=3	=3	=3	=3	=3
1B-M	B-:maj	1r	.	1r	.	.	.	.
=4	=4	=4	=4	=4	=4	=4	=4	=4
1FM	F:maj	1r	.	1r	.	.	.	.
=5	=5	=5	=5	=5	=5	=5	=5	=5
1CM	C:maj	1r	.	1r	.	.	.	.
=6	=6	=6	=6	=6	=6	=6	=6	=6
1CM	C:maj	1r	.	1r	.	.	.	.
=7	=7	=7	=7	=7	=7	=7	=7	=7
1B-M	B-:maj	1r	.	1r	.	.	.	.
=8	=8	=8	=8	=8	=8	=8	=8	=8
1FM	F:maj	1r	.	1r	.	.	.	.
=9	=9	=9	=9	=9	=9	=9	=9	=9
*>Letter>B	*>Letter>B	*>Letter>B	*>Letter>B	*>Letter>B	*>Letter>B	*>Letter>B	*>Letter>B	*>Letter>B
*>Label>Instrumental	*>Label>Instrumental	*>Label>Instrumental	*>Label>Instrumental	*>Label>Instrumental	*>Label>Instrumental	*>Label>Instrumental	*>Label>Instrumental	*>Label>Instrumental
=10	=10	=10	=10	=10	=10	=10	=10	=10
1CM	C:maj	1r	.	1r	.	.	.	.
=11	=11	=11	=11	=11	=11	=11	=11	=11
1B-M	B-:maj	1r	.	1r	.	.	.	.
=12	=12	=12	=12	=12	=12	=12	=12	=12
1FM	F:maj	1r	.	1r	.	.	.	.
=13	=13	=13	=13	=13	=13	=13	=13	=13
1CM	C:maj	1r	.	1r	.	.	.	.
=14	=14	=14	=14	=14	=14	=14	=14	=14
1CM	C:maj	1r	.	1r	.	.	.	.
=15	=15	=15	=15	=15	=15	=15	=15	=15
1B-M	B-:maj	1r	.	1r	.	.	.	.
=16	=16	=16	=16	=16	=16	=16	=16	=16
1FM	F:maj	1r	.	1r	.	.	.	.
=17	=17	=17	=17	=17	=17	=17	=17	=17
*>Letter>B	*>Letter>B	*>Letter>B	*>Letter>B	*>Letter>B	*>Letter>B	*>Letter>B	*>Letter>B	*>Letter>B
*>Label>Verse	*>Label>Verse	*>Label>Verse	*>Label>Verse	*>Label>Verse	*>Label>Verse	*>Label>Verse	*>Label>Verse	*>Label>Verse
.	.	8c	I	8e	I	.	.	.
.	.	8~B-	could	8~d	could	.	.	.
.	.	8c	see	8e	see	.	.	.
.	.	8c	it	8e	it	.	.	.
.	.	8c	was	8e	was	.	.	.
.	.	8c	a	8e	a	.	.	.
=18	=18	=18	=18	=18	=18	=18	=18	=18
1CM	C:maj	4e	rough-	4g	rough-	.	.	.
.	.	4c	-cut	4e	-cut	.	.	.
.	.	4B-	Tues-	4d	Tues-	.	.	.
.	.	4c	-day	4e	-day	A	.	.
=19	=19	=19	=19	=19	=19	=19	=19	=19
1B-M	B-:maj	4r	.	4r	.	.	.	.
.	.	4B-	slow	4d	slow	.	.	.
.	.	4B-	mo-	4~d	mo-	.	.	.
.	.	8c	-tion	8e-	-tion	.	.	.
.	.	[8e-	week	[8g	week	.	.	.
=20	=20	=20	=20	=20	=20	=20	=20	=20
1FM	F:maj	8e-]	_	8g]	_	.	.	.
.	.	4.d	days	4.f	days	A	.	.
.	.	4c	stare	4e-	stare	.	.	.
.	.	8A	me	8~d	me	.	.	.
.	.	[8c	down	[8e	down	B	.	.
=21	=21	=21	=21	=21	=21	=21	=21	=21
1CM	C:maj	4.c]	_	4.e]	_	.	.	.
.	.	8A	_	8d	_	.	.	.
.	.	2G	_	2c	_	.	.	.
=22	=22	=22	=22	=22	=22	=22	=22	=22
1CM	C:maj	1r	.	1r	.	.	.	.
=23	=23	=23	=23	=23	=23	=23	=23	=23
1B-M	B-:maj	4r	.	4r	.	.	.	.
.	.	4B-	Her	4d	Her	.	.	.
.	.	4B-	lip-	4d	lip-	.	.	.
.	.	4c	-stick	4~e-	-stick	.	.	.
=24	=24	=24	=24	=24	=24	=24	=24	=24
1FM	F:maj	4e-	re-	4g	re-	(c	.	.
.	.	4d	-flex	4f	-flex	C)	.	.
.	.	4c	got	4e-	got	.	.	.
.	.	8B-	me	8d	me	.	.	.
.	.	[8c	wound	[8e	wound	B	.	.
=25	=25	=25	=25	=25	=25	=25	=25	=25
.	.	8A	_	8d	_	.	.	.
.	.	2G	_	2c	_	.	.	.
=26	=26	=26	=26	=26	=26	=26	=26	=26
1CM	C:maj	1r	.	1r	.	.	.	.
=27	=27	=27	=27	=27	=27	=27	=27	=27
1B-M	B-:maj	4r	.	4r	.	.	.	.
.	.	4B-	There	4d	There	.	.	.
.	.	4B-	were	4d	were	.	.	.
.	.	4c	no	4e-	no	.	.	.
=28	=28	=28	=28	=28	=28	=28	=28	=28
1FM	F:maj	8e-	de-	8g	de-	(c	.	.
.	.	4.d	-fects	4.f	-fects	C)	.	.
.	.	4c	to	4e-	to	.	.	.
.	.	8A	be	8~d	be	.	.	.
.	.	[8c	found	[8e	found	B	.	.
=29	=29	=29	=29	=29	=29	=29	=29	=29
1CM	C:maj	4.c]	_	4.e]	_	.	.	.
.	.	8A	_	8d	_	.	.	.
.	.	2G	_	2c	_	.	.	.
=30	=30	=30	=30	=30	=30	=30	=30	=30
1CM	C:maj	1r	.	1r	.	.	.	.
=31	=31	=31	=31	=31	=31	=31	=31	=31
1B-M	B-:maj	4B-	Snap-	4d	Snap-	.	.	.
.	.	4B-	-shot	4d	-shot	.	.	.
.	.	8B-	i-	8d	i-	.	.	.
.	.	4c	-mage	4e-	-mage	.	.	.
.	.	8dq	_	8fq	_	.	.	.
.	.	[8e-	froze	[8g	froze	.	.	.
=32	=32	=32	=32	=32	=32	=32	=32	=32
1FM	F:maj	4.e-]	_	4.g]	_	.	.	.
.	.	8d	with-	8f	with-	.	.	.
.	.	4c	-out	4e-	-out	.	.	.
.	.	8B-	a	8~d	a	.	.	.
.	.	8B-q	_	.	.	.	.	.
.	.	[8B	sound	[8d	sound	B	.	.
=33	=33	=33	=33	=33	=33	=33	=33	=33
=34	=34	=34	=34	=34	=34	=34	=34	=34
1GM	G:maj	2B_	_	2d_	_	.	.	.
.	.	8B]	_	8d]	_	.	.	.
.	.	8A	_	8c	_	.	.	.
.	.	4G	_	4B	_	.	.	.
=35	=35	=35	=35	=35	=35	=35	=35	=35
1FM	F:maj	1A	_	1c	_	.	.	.
=36	=36	=36	=36	=36	=36	=36	=36	=36
1FM	F:maj	1r	.	1r	.	.	.	.
=37	=37	=37	=37	=37	=37	=37	=37	=37
2A-M	A-:maj/7	.	.	.	.	.	.	.
=38	=38	=38	=38	=38	=38	=38	=38	=38
2AM	A:maj/b7	1r	.	1r	.	.	.	.
2A-M	A-:maj/7	.	.	.	.	.	.	.
=39	=39	=39	=39	=39	=39	=39	=39	=39
2GM	G:maj	1r	.	1r	.	.	.	.
2A-M	A-:maj/7	.	.	.	.	.	.	.
=40	=40	=40	=40	=40	=40	=40	=40	=40
2B-M	B-:maj/6	1r	.	1r	.	.	.	.
2BM	B:maj/b6	.	.	.	.	.	.	.
=41	=41	=41	=41	=41	=41	=41	=41	=41
*>Letter>B	*>Letter>B	*>Letter>B	*>Letter>B	*>Letter>B	*>Letter>B	*>Letter>B	*>Letter>B	*>Letter>B
*>Label>Verse	*>Label>Verse	*>Label>Verse	*>Label>Verse	*>Label>Verse	*>Label>Verse	*>Label>Verse	*>Label>Verse	*>Label>Verse
.	.	8c	Thurs-	8e	Thurs-	.	.	.
.	.	8c	-day	8e	-day	.	.	.
.	.	8c	mor-	8e	mor-	.	.	.
.	.	8c	-ning	8e	-ning	.	.	.
.	.	8c	was	8e	was	.	.	.
.	.	8c	a	8e	a	.	.	.
=42	=42	=42	=42	=42	=42	=42	=42	=42
.	.	8dq	_	.	.	.	.	.
1CM	C:maj	4e-	hot	4g	hot	.	.	.
.	.	4c	flash	4e	flash	.	.	.
.	.	4B-	fac-	4d	fac-	.	.	.
.	.	4c	-tor	4e	-tor	.	.	.
=43	=43	=43	=43	=43	=43	=43	=43	=43
1B-M	B-:maj	4r	.	4r	.	.	.	.
.	.	4B-	her	4d	her	.	.	.
.	.	4B-	face	4d	face	.	.	.
.	.	4c	still	4e-	still	.	.	.
=44	=44	=44	=44	=44	=44	=44	=44	=44
1FM	F:maj	8e-	fo-	8g	fo-	.	.	.
.	.	4.d	-cused	4.f	-cused	.	.	.
.	.	4c	in	4e-	in	.	.	.
.	.	4A	my	4~c	my	.	.	.
=45	=45	=45	=45	=45	=45	=45	=45	=45
.	.	8Aq	_	8dq	_	.	.	.
1CM	C:maj	4.c	mind	4.e	_	D	.	.
.	.	8A	_	8d	_	.	.	.
.	.	2G	_	2c	_	.	.	.
=46	=46	=46	=46	=46	=46	=46	=46	=46
1CM	C:maj	1r	.	4r	.	.	.	.
.	.	.	.	8c 8e	Dee-	.	.	.
.	.	.	.	8c 8e	-dle	.	.	.
.	.	.	.	8c 8e	lee-	.	.	.
.	.	.	.	8c 8e	-dle	.	.	.
.	.	.	.	4c 4e	lee!	.	.	.
=47	=47	=47	=47	=47	=47	=47	=47	=47
1B-M	B-:maj	4~B-	Test	4~d	Test	.	.	.
.	.	4~B-	strip	4~d	strip	.	.	.
.	.	4B-	proof	4d	proof	.	.	.
.	.	8c	sheet	8~e-	sheet	.	.	.
.	.	8dq	_	8fq	_	.	.	.
.	.	[8e-	love	[8g	love	.	.	.
=48	=48	=48	=48	=48	=48	=48	=48	=48
1FM	F:maj	4e-]	_	4g]	_	.	.	.
.	.	4d	is	4f	is	.	.	.
.	.	4c	hard	4e-	hard	.	.	.
.	.	8B-	to	8d	to	.	.	.
.	.	8Aq	_	8dq	_	.	.	.
.	.	[8c	find	[8e	find	D	.	.
=49	=49	=49	=49	=49	=49	=49	=49	=49
.	.	8A	_	8d	_	.	.	.
.	.	2G	_	2c	_	.	.	.
=50	=50	=50	=50	=50	=50	=50	=50	=50
1CM	C:maj	1r	.	4r	.	.	.	.
.	.	.	.	8c 8e	Dee-	.	.	.
.	.	.	.	8c 8e	-dle	.	.	.
.	.	.	.	8c 8e	lee-	.	.	.
.	.	.	.	8c 8e	-dle	.	.	.
.	.	.	.	4c 4e	lee!	.	.	.
=51	=51	=51	=51	=51	=51	=51	=51	=51
1B-M	B-:maj	4B-	Fri-	4d	Fri-	.	.	.
.	.	8B-	-day	8d	-day	.	.	.
.	.	[8B-	night,	[8d	night,	.	.	.
.	.	4B-]	_	4d]	_	.	.	.
.	.	8c	we'll	8~e-	we'll	.	.	.
.	.	8dq	_	8fq	_	.	.	.
.	.	[8e-	dance	[8g	dance	.	.	.
=52	=52	=52	=52	=52	=52	=52	=52	=52
1FM	F:maj	4e-]	_	4g]	_	.	.	.
.	.	4d	the	4f	the	.	.	.
.	.	4c	spot-	4e-	spot-	.	.	.
.	.	4A	-light	4c	-light	.	.	.
=53	=53	=53	=53	=53	=53	=53	=53	=53
1CM	C:maj	4.c	grind	4.e	grind	D	.	.
.	.	8A	_	8d	_	.	.	.
.	.	2G	_	2c	_	.	.	.
=54	=54	=54	=54	=54	=54	=54	=54	=54
1CM	C:maj	1r	.	4r	.	.	.	.
.	.	.	.	8c 8e	Dee-	.	.	.
.	.	.	.	8c 8e	-dle	.	.	.
.	.	.	.	8c 8e	lee-	.	.	.
.	.	.	.	8c 8e	-dle	.	.	.
.	.	.	.	4c 4e	lee!	.	.	.
=55	=55	=55	=55	=55	=55	=55	=55	=55
1B-M	B-:maj	4~B-	Stop	4d	Stop	.	.	.
.	.	4~B-	time	4d	time	.	.	.
.	.	4B-	heart	4d	heart	.	.	.
.	.	8c	for	8e-	for	.	.	.
.	.	8dq	_	8fq	_	.	.	.
.	.	8e-	me,	8g	me,	.	.	.
=56	=56	=56	=56	=56	=56	=56	=56	=56
1FM	F:maj	8d	_	8f	_	.	.	.
.	.	4.d	if	4.f	if	.	.	.
.	.	4c	she's	4e-	she's	.	.	.
.	.	4A	not	4~d	not	.	.	.
=57	=57	=57	=57	=57	=57	=57	=57	=57
=58	=58	=58	=58	=58	=58	=58	=58	=58
1GM	G:maj	2B_	_	2d_	_	.	.	.
.	.	8B]	_	8d]	_	.	.	.
.	.	8A	_	8c	_	.	.	.
.	.	4G	_	4B	_	.	.	.
=59	=59	=59	=59	=59	=59	=59	=59	=59
1FM	F:maj	[2A	_	[2c	_	.	.	.
.	.	8A]	_	8c]	_	.	.	.
.	.	8r	.	8r	.	.	.	.
.	.	4r	.	4r	.	.	.	.
=60	=60	=60	=60	=60	=60	=60	=60	=60
1FM	F:maj	1r	.	1r	.	.	.	.
=61	=61	=61	=61	=61	=61	=61	=61	=61
2A-M	A-:maj/7	.	.	.	.	.	.	.
=62	=62	=62	=62	=62	=62	=62	=62	=62
2AM	A:maj/b7	1r	.	1r	.	.	.	.
2A-M	A-:maj/7	.	.	.	.	.	.	.
=63	=63	=63	=63	=63	=63	=63	=63	=63
2GM	G:maj	1r	.	1r	.	.	.	.
2A-M	A-:maj/7	.	.	.	.	.	.	.
=64	=64	=64	=64	=64	=64	=64	=64	=64
2B-M	B-:maj/6	1r	.	1r	.	.	.	.
2BM	B:maj/b6	.	.	.	.	.	.	.
=65	=65	=65	=65	=65	=65	=65	=65	=65
*>Letter>C	*>Letter>C	*>Letter>C	*>Letter>C	*>Letter>C	*>Letter>C	*>Letter>C	*>Letter>C	*>Letter>C
*>Label>Chorus	*>Label>Chorus	*>Label>Chorus	*>Label>Chorus	*>Label>Chorus	*>Label>Chorus	*>Label>Chorus	*>Label>Chorus	*>Label>Chorus
.	.	.	.	4e	frame	.	.	.
2N	N	4c	Freeze	2r	.	.	.	.
.	.	4A	frame	.	.	.	.	.
=66	=66	=66	=66	=66	=66	=66	=66	=66
2CM	C:maj	2r	.	4g	Freeze	.	.	.
.	.	.	.	4e	frame	.	.	.
2N	N	4c	Freeze	2r	.	.	.	.
.	.	8dq	_	.	.	.	.	.
.	.	4e-	frame	.	.	.	.	.
=67	=67	=67	=67	=67	=67	=67	=67	=67
*	*	*clefG2	*	*	*	*	*	*
2CM	C:maj	2r	.	4g	Freeze	.	.	.
.	.	.	.	4e	frame	.	.	.
.	.	8gq	_	.	.	.	.	.
2N	N	4bb-	Freeze	2r	.	.	.	.
.	.	4d-	frame!	.	.	.	.	.
=68	=68	=68	=68	=68	=68	=68	=68	=68
*	*	*clefC3	*	*clefG2	*	*	*	*
2CM	C:maj	2r	.	4g	Freeze	.	.	.
.	.	.	.	4e	frame,	.	.	.
2N	N	8r	.	2bb-	woo!	.	.	.
.	.	8c	N-	.	.	.	.	.
.	.	8dq	_	.	.	.	.	.
.	.	4e-	-now,	.	.	.	.	.
=69	=69	=69	=69	=69	=69	=69	=69	=69
1GM	G:maj	4d	freeze	1r	.	.	.	.
.	.	4r	.	.	.	.	.	.
.	.	2r	.	.	.	.	.	.
=70	=70	=70	=70	=70	=70	=70	=70	=70
1N	N	1r	.	1r	.	.	.	.
=71	=71	=71	=71	=71	=71	=71	=71	=71
*>Letter>B	*>Letter>B	*>Letter>B	*>Letter>B	*>Letter>B	*>Letter>B	*>Letter>B	*>Letter>B	*>Letter>B
*>Label>Verse	*>Label>Verse	*>Label>Verse	*>Label>Verse	*>Label>Verse	*>Label>Verse	*>Label>Verse	*>Label>Verse	*>Label>Verse
.	.	8c	Now	8e	Now	.	.	.
.	.	8c	I'm	8e	I'm	.	.	.
.	.	8c	loo-	8e	loo-	.	.	.
.	.	8c	-king	8e	-king	.	.	.
.	.	8c	at	8e	at	.	.	.
.	.	8c	a	8e	a	.	.	.
=72	=72	=72	=72	=72	=72	=72	=72	=72
.	.	8dq	_	.	.	.	.	.
1CM	C:maj	4e-	flash-	4g	flash-	.	.	.
.	.	4c	-back	4e	-back	.	.	.
.	.	4B-	Sun-	4d	Sun-	.	.	.
.	.	4c	-day,	4e	-day,	.	.	.
=73	=73	=73	=73	=73	=73	=73	=73	=73
1B-M	B-:maj	4B-	zoom	4d	zoom	.	.	.
.	.	4B-	lens	4d	lens	.	.	.
.	.	8B-	fee-	8d	fee-	.	.	.
.	.	8B-	-l-	8d	-l-	.	.	.
.	.	4c	-ings	4e-	-ings	.	.	.
=74	=74	=74	=74	=74	=74	=74	=74	=74
.	.	8dq	_	8fq	_	.	.	.
1FM	F:maj	4e-	just	4g	just	.	.	.
.	.	4d	won't	4f	won't	.	.	.
.	.	4c	dis-	4e-	dis-	.	.	.
.	.	8A	-ap-	8~c	-ap-	.	.	.
.	.	[8c	-pear	[8e	-pear	E	.	.
=75	=75	=75	=75	=75	=75	=75	=75	=75
.	.	8Aq	_	8dq	_	.	.	.
1CM	C:maj	4.c]	_	4.e]	_	.	.	.
.	.	8A	_	8d	_	.	.	.
.	.	2G	_	2c	_	.	.	.
=76	=76	=76	=76	=76	=76	=76	=76	=76
1CM	C:maj	1r	.	4r	.	.	.	.
.	.	.	.	8c 8e	_	.	.	.
.	.	.	.	8c 8e	_	.	.	.
.	.	.	.	8c 8e	_	.	.	.
.	.	.	.	8c 8e	_	.	.	.
.	.	.	.	4c 4e	_	.	.	.
=77	=77	=77	=77	=77	=77	=77	=77	=77
1B-M	B-:maj	4~B-	Close	4d	Close	.	.	.
.	.	4~B-	up,	4d	up,	.	.	.
.	.	4B-	dark	4d	dark	.	.	.
.	.	4~B-	room	4~e-	room	.	.	.
=78	=78	=78	=78	=78	=78	=78	=78	=78
1FM	F:maj	4e-	sweet	4g	sweet	.	.	.
.	.	4d	talk	4f	talk	.	.	.
.	.	4c	in	4e-	in	.	.	.
.	.	4A	my	4c	my	.	.	.
=79	=79	=79	=79	=79	=79	=79	=79	=79
.	.	8A	_	8d	_	.	.	.
.	.	2G	_	2c	_	.	.	.
=80	=80	=80	=80	=80	=80	=80	=80	=80
1CM	C:maj	1r	.	4r	.	.	.	.
.	.	.	.	8c 8e	_	.	.	.
.	.	.	.	8c 8e	_	.	.	.
.	.	.	.	8c 8e	_	.	.	.
.	.	.	.	8c 8e	_	.	.	.
.	.	.	.	4c 4e	_	.	.	.
=81	=81	=81	=81	=81	=81	=81	=81	=81
1B-M	B-:maj	4r	.	4r	.	.	.	.
.	.	4B-	Her	4d	Her	.	.	.
.	.	4B-	hot	4d	hot	.	.	.
.	.	4c	spot	4d-	spot	.	.	.
=82	=82	=82	=82	=82	=82	=82	=82	=82
1FM	F:maj	4~f	love	4g	love	.	.	.
.	.	8d	for	8f	for	.	.	.
.	.	[8c	me	[8e-	me	.	.	.
.	.	4c]	_	4e-]	_	.	.	.
.	.	4A	is	4c	is	.	.	.
=83	=83	=83	=83	=83	=83	=83	=83	=83
1CM	C:maj	4.c	strong	4.e	strong	F	.	.
.	.	8A	_	8d	_	.	.	.
.	.	2G	_	2c	_	.	.	.
=84	=84	=84	=84	=84	=84	=84	=84	=84
1CM	C:maj	1r	.	4r	.	.	.	.
.	.	.	.	8c 8e	_	.	.	.
.	.	.	.	8c 8e	_	.	.	.
.	.	.	.	8c 8e	_	.	.	.
.	.	.	.	8c 8e	_	.	.	.
.	.	.	.	4c 4e	_	.	.	.
=85	=85	=85	=85	=85	=85	=85	=85	=85
1B-M	B-:maj	4r	.	4r	.	.	.	.
.	.	4B-	This	4d	This	.	.	.
.	.	4B-	freeze-	4d	freeze-	.	.	.
.	.	4c	-frame	4e-	-frame	.	.	.
=86	=86	=86	=86	=86	=86	=86	=86	=86
1FM	F:maj	4e-	mo-	4g	mo-	.	.	.
.	.	4d	-ment	4f	-ment	.	.	.
.	.	4c	can't	4e-	can't	.	.	.
.	.	4B-	be	4~c	be	.	.	.
=87	=87	=87	=87	=87	=87	=87	=87	=87
=88	=88	=88	=88	=88	=88	=88	=88	=88
1GM	G:maj	2B_	_	2d_	_	.	.	.
.	.	8B]	_	8d]	_	.	.	.
.	.	8A	_	8c	_	.	.	.
.	.	4G	_	4B	_	.	.	.
=89	=89	=89	=89	=89	=89	=89	=89	=89
1FM	F:maj	[2A	_	[2c	_	.	.	.
.	.	8A]	_	8c]	_	.	.	.
.	.	8r	.	8r	.	.	.	.
.	.	4r	.	4r	.	.	.	.
=90	=90	=90	=90	=90	=90	=90	=90	=90
1FM	F:maj	1r	.	1r	.	.	.	.
=91	=91	=91	=91	=91	=91	=91	=91	=91
2A-M	A-:maj/7	.	.	.	.	.	.	.
=92	=92	=92	=92	=92	=92	=92	=92	=92
2AM	A:maj/b7	1r	.	1r	.	.	.	.
2A-M	A-:maj/7	.	.	.	.	.	.	.
=93	=93	=93	=93	=93	=93	=93	=93	=93
2GM	G:maj	1r	.	1r	.	.	.	.
2A-M	A-:maj/7	.	.	.	.	.	.	.
=94	=94	=94	=94	=94	=94	=94	=94	=94
2B-M	B-:maj/6	1r	.	1r	.	.	.	.
2BM	B:maj/b6	.	.	.	.	.	.	.
=95	=95	=95	=95	=95	=95	=95	=95	=95
*>Letter>C	*>Letter>C	*>Letter>C	*>Letter>C	*>Letter>C	*>Letter>C	*>Letter>C	*>Letter>C	*>Letter>C
*>Label>Chorus	*>Label>Chorus	*>Label>Chorus	*>Label>Chorus	*>Label>Chorus	*>Label>Chorus	*>Label>Chorus	*>Label>Chorus	*>Label>Chorus
.	.	.	.	4e	frame	.	.	.
2N	N	4c	Freeze	2r	.	.	.	.
.	.	4A	frame	.	.	.	.	.
=96	=96	=96	=96	=96	=96	=96	=96	=96
2CM	C:maj	2r	.	4g	Freeze	.	.	.
.	.	.	.	4e	frame	.	.	.
2N	N	4e-	Freeze	2r	.	.	.	.
.	.	8dq	_	.	.	.	.	.
.	.	[4e-	frame	.	.	.	.	.
=97	=97	=97	=97	=97	=97	=97	=97	=97
2CM	C:maj	4e	_	4g	Freeze	.	.	.
.	.	4r	.	4e	frame	.	.	.
.	.	8gq	_	.	.	.	.	.
2N	N	4bb-	Freeze	2r	.	.	.	.
.	.	4d-	frame!	.	.	.	.	.
=98	=98	=98	=98	=98	=98	=98	=98	=98
2CM	C:maj	2r	.	4g	Freeze	.	.	.
.	.	.	.	4e	frame,	.	.	.
2N	N	8r	.	2bb-	woo!	.	.	.
.	.	8c	N-	.	.	.	.	.
.	.	8dq	_	.	.	.	.	.
.	.	4e-]	-now,	.	.	.	.	.
=99	=99	=99	=99	=99	=99	=99	=99	=99
1GM	G:maj	4d	freeze	1r	.	.	.	.
.	.	4r	.	.	.	.	.	.
.	.	2r	.	.	.	.	.	.
=100	=100	=100	=100	=100	=100	=100	=100	=100
1N	N	1r	.	1r	.	.	.	.
=101	=101	=101	=101	=101	=101	=101	=101	=101
*>Letter>D	*>Letter>D	*>Letter>D	*>Letter>D	*>Letter>D	*>Letter>D	*>Letter>D	*>Letter>D	*>Letter>D
*>Label>Trans	*>Label>Trans	*>Label>Trans	*>Label>Trans	*>Label>Trans	*>Label>Trans	*>Label>Trans	*>Label>Trans	*>Label>Trans
=102	=102	=102	=102	=102	=102	=102	=102	=102
1CMm	C:7	1r	.	1r	.	.	.	.
=103	=103	=103	=103	=103	=103	=103	=103	=103
1CMm	C:7	1r	.	1r	.	.	.	.
=104	=104	=104	=104	=104	=104	=104	=104	=104
1CMm	C:7	1r	.	1r	.	.	.	.
=105	=105	=105	=105	=105	=105	=105	=105	=105
1CMm	C:7	1r	.	1r	.	.	.	.
=106	=106	=106	=106	=106	=106	=106	=106	=106
1CMm	C:7	1r	.	1r	.	.	.	.
=107	=107	=107	=107	=107	=107	=107	=107	=107
1CMm	C:7	1r	.	1r	.	.	.	.
=108	=108	=108	=108	=108	=108	=108	=108	=108
1CMm	C:7	1r	.	1r	.	.	.	.
=109	=109	=109	=109	=109	=109	=109	=109	=109
*>Letter>B	*>Letter>B	*>Letter>B	*>Letter>B	*>Letter>B	*>Letter>B	*>Letter>B	*>Letter>B	*>Letter>B
*>Label>Verse	*>Label>Verse	*>Label>Verse	*>Label>Verse	*>Label>Verse	*>Label>Verse	*>Label>Verse	*>Label>Verse	*>Label>Verse
=110	=110	=110	=110	=110	=110	=110	=110	=110
1CM	C:maj	1r	.	1r	.	.	.	.
=111	=111	=111	=111	=111	=111	=111	=111	=111
1B-M	B-:maj	1r	.	1r	.	.	.	.
=112	=112	=112	=112	=112	=112	=112	=112	=112
1FM	F:maj	1r	.	1r	.	.	.	.
=113	=113	=113	=113	=113	=113	=113	=113	=113
1CM	C:maj	4c 4e	Shoot	1r	.	.	.	.
.	.	4r	.	.	.	.	.	.
.	.	4c 4e	Shoot	.	.	.	.	.
.	.	4r	.	.	.	.	.	.
=114	=114	=114	=114	=114	=114	=114	=114	=114
1CM	C:maj	4r	.	1r	.	.	.	.
.	.	8c 8e	Dee-	.	.	.	.	.
.	.	8c 8e	-dle	.	.	.	.	.
.	.	8c 8e	lee-	.	.	.	.	.
.	.	8c 8e	-dle	.	.	.	.	.
.	.	4c 4e	lee!	.	.	.	.	.
=115	=115	=115	=115	=115	=115	=115	=115	=115
1B-M	B-:maj	1r	.	1r	.	.	.	.
=116	=116	=116	=116	=116	=116	=116	=116	=116
1FM	F:maj	1r	.	1r	.	.	.	.
=117	=117	=117	=117	=117	=117	=117	=117	=117
.	.	4r	.	.	.	.	.	.
.	.	4c 4e	Shoot	.	.	.	.	.
.	.	4r	.	.	.	.	.	.
=118	=118	=118	=118	=118	=118	=118	=118	=118
2B-M	B-:maj	4r	.	1r	.	.	.	.
.	.	8c 8e	Dee-	.	.	.	.	.
.	.	8c 8e	-dle	.	.	.	.	.
2FM	F:maj	8c 8e	lee-	.	.	.	.	.
.	.	8c 8e	-dle	.	.	.	.	.
.	.	4c 4e	lee!	.	.	.	.	.
=119	=119	=119	=119	=119	=119	=119	=119	=119
1CM	C:maj	1r	.	1r	.	.	.	.
=120	=120	=120	=120	=120	=120	=120	=120	=120
2B-M	B-:maj	1r	.	1r	.	.	.	.
2FM	F:maj	.	.	.	.	.	.	.
=121	=121	=121	=121	=121	=121	=121	=121	=121
1CM	C:maj	4c 4e	Shoot	1r	.	.	.	.
.	.	4r	.	.	.	.	.	.
.	.	4c 4e	Shoot	.	.	.	.	.
.	.	4r	.	.	.	.	.	.
=122	=122	=122	=122	=122	=122	=122	=122	=122
2B-M	B-:maj	4r	.	1r	.	.	.	.
.	.	8c 8e	Dee-	.	.	.	.	.
.	.	8c 8e	-dle	.	.	.	.	.
2FM	F:maj	8c 8e	lee-	.	.	.	.	.
.	.	8c 8e	-dle	.	.	.	.	.
.	.	4c 4e	lee!	.	.	.	.	.
=123	=123	=123	=123	=123	=123	=123	=123	=123
1CM	C:maj	1r	.	1r	.	.	.	.
=124	=124	=124	=124	=124	=124	=124	=124	=124
2B-M	B-:maj	1r	.	1r	.	.	.	.
2FM	F:maj	.	.	.	.	.	.	.
=125	=125	=125	=125	=125	=125	=125	=125	=125
=126	=126	=126	=126	=126	=126	=126	=126	=126
1GM	G:maj	1r	.	1r	.	.	.	.
=127	=127	=127	=127	=127	=127	=127	=127	=127
1FM	F:maj	1r	.	1r	.	.	.	.
=128	=128	=128	=128	=128	=128	=128	=128	=128
1FM	F:maj	1r	.	1r	.	.	.	.
=129	=129	=129	=129	=129	=129	=129	=129	=129
2A-M	A-:maj/7	.	.	.	.	.	.	.
=130	=130	=130	=130	=130	=130	=130	=130	=130
2AM	A:maj/b7	1r	.	1r	.	.	.	.
2A-M	A-:maj/7	.	.	.	.	.	.	.
=131	=131	=131	=131	=131	=131	=131	=131	=131
2GM	G:maj	1r	.	1r	.	.	.	.
2A-M	A-:maj/7	.	.	.	.	.	.	.
=132	=132	=132	=132	=132	=132	=132	=132	=132
2B-M	B-:maj/6	1r	.	1r	.	.	.	.
2BM	B:maj/b6	.	.	.	.	.	.	.
=133	=133	=133	=133	=133	=133	=133	=133	=133
*>Letter>C	*>Letter>C	*>Letter>C	*>Letter>C	*>Letter>C	*>Letter>C	*>Letter>C	*>Letter>C	*>Letter>C
*>Label>Chorus	*>Label>Chorus	*>Label>Chorus	*>Label>Chorus	*>Label>Chorus	*>Label>Chorus	*>Label>Chorus	*>Label>Chorus	*>Label>Chorus
.	.	.	.	4e	frame	.	.	.
2N	N	4c	Freeze	2r	.	.	.	.
.	.	[4~A	frame	.	.	.	.	.
=134	=134	=134	=134	=134	=134	=134	=134	=134
2CM	C:maj	4A]	_	4g	Freeze	.	.	.
.	.	4r	.	4e	frame	.	.	.
2N	N	4c 4e-	Freeze	2r	.	.	.	.
.	.	8dq 8f#q	_	.	.	.	.	.
.	.	4e- 4g	frame	.	.	.	.	.
=135	=135	=135	=135	=135	=135	=135	=135	=135
2CM	C:maj	2r	.	4g	Freeze	.	.	.
.	.	.	.	4e	frame	.	.	.
.	.	8gq	_	.	.	.	.	.
2N	N	4bb-	Freeze	2r	.	.	.	.
.	.	4d-	frame	.	.	.	.	.
=136	=136	=136	=136	=136	=136	=136	=136	=136
2CM	C:maj	2r	.	4g	Freeze	.	.	.
.	.	.	.	4e	frame,	.	.	.
2N	N	8r	.	2bb-	woo!	.	.	.
.	.	8c	N-	.	.	.	.	.
.	.	8dq	_	.	.	.	.	.
.	.	4e-	-now,	.	.	.	.	.
=137	=137	=137	=137	=137	=137	=137	=137	=137
1GM	G:maj	1d	freeze!	1r	.	.	.	.
=138	=138	=138	=138	=138	=138	=138	=138	=138
1N	N	1r	.	1r	.	.	.	.
=139	=139	=139	=139	=139	=139	=139	=139	=139
*>Letter>A	*>Letter>A	*>Letter>A	*>Letter>A	*>Letter>A	*>Letter>A	*>Letter>A	*>Letter>A	*>Letter>A
*>Label>Outro	*>Label>Outro	*>Label>Outro	*>Label>Outro	*>Label>Outro	*>Label>Outro	*>Label>Outro	*>Label>Outro	*>Label>Outro
=140	=140	=140	=140	=140	=140	=140	=140	=140
1CM	C:maj	1r	.	1r	.	.	.	.
=141	=141	=141	=141	=141	=141	=141	=141	=141
1B-M	B-:maj	1r	.	1r	.	.	.	.
=142	=142	=142	=142	=142	=142	=142	=142	=142
1FM	F:maj	1r	.	1r	.	.	.	.
=143	=143	=143	=143	=143	=143	=143	=143	=143
1CM	C:maj	1r	.	1r	.	.	.	.
=144	=144	=144	=144	=144	=144	=144	=144	=144
1CM	C:maj	1r	.	1r	.	.	.	.
=145	=145	=145	=145	=145	=145	=145	=145	=145
1B-M	B-:maj	1a-	Yeah!	1r	.	.	.	.
=146	=146	=146	=146	=146	=146	=146	=146	=146
1FM	F:maj	1r	.	1r	.	.	.	.
=147	=147	=147	=147	=147	=147	=147	=147	=147
.	.	.	.	4c 4e	frame	.	.	.
.	.	.	.	2r	.	.	.	.
=148	=148	=148	=148	=148	=148	=148	=148	=148
1CM	C:maj	4r	.	1r	.	.	.	.
.	.	8e	Oh,	.	.	.	.	.
.	.	[8d	yeah!	.	.	.	.	.
.	.	16d]	_	.	.	.	.	.
.	.	[8.c	_	.	.	.	.	.
.	.	4c]	_	.	.	.	.	.
=149	=149	=149	=149	=149	=149	=149	=149	=149
1B-M	B-:maj	1r	.	4d 4f 4b-	Freeze	.	.	.
.	.	.	.	[4d [4f [4b-	frame	.	.	.
.	.	.	.	8d] 8f] 8b-]	_	.	.	.
.	.	.	.	8e 8g 8cc	_	.	.	.
.	.	.	.	4d 4f 4b-	_	.	.	.
=150	=150	=150	=150	=150	=150	=150	=150	=150
1FM	F:maj	1r	.	2c 2f 2a	_	.	.	.
.	.	.	.	8r	.	.	.	.
.	.	.	.	8A	It's	.	.	.
.	.	.	.	8A	time	.	.	.
.	.	.	.	8A	to	.	.	.
=151	=151	=151	=151	=151	=151	=151	=151	=151
1CM	C:maj	2r	.	4c 4e	Freeze	.	.	.
.	.	.	.	4c 4e	frame	.	.	.
.	.	8d#q	_	.	.	.	.	.
.	.	4e	Freeze	2r	.	.	.	.
.	.	[4c	frame	.	.	.	.	.
=152	=152	=152	=152	=152	=152	=152	=152	=152
1CM	C:maj	2c_	_	1r	.	.	.	.
.	.	8c]	_	.	.	.	.	.
.	.	8A	_	.	.	.	.	.
.	.	4r	.	.	.	.	.	.
=153	=153	=153	=153	=153	=153	=153	=153	=153
1B-M	B-:maj	1r	.	4d 4f 4b-	Freeze	.	.	.
.	.	.	.	[4d [4f [4b-	frame	.	.	.
.	.	.	.	8d] 8f] 8b-]	_	.	.	.
.	.	.	.	8e 8g 8cc	_	.	.	.
.	.	.	.	4d 4f 4b-	_	.	.	.
=154	=154	=154	=154	=154	=154	=154	=154	=154
1FM	F:maj	2r	.	2c 2f 2a	_	.	.	.
.	.	8r	.	8r	.	.	.	.
.	.	8A	It's	8A	It's	.	.	.
.	.	8e	like	8A	time	.	.	.
.	.	8c	a	8A	to	.	.	.
=155	=155	=155	=155	=155	=155	=155	=155	=155
.	.	4r	.	4r	.	.	.	.
.	.	4c	freeze	4c 4e	shoot	.	.	.
.	.	4r	.	4r	.	.	.	.
=156	=156	=156	=156	=156	=156	=156	=156	=156
1CM	C:maj	4c	freeze	4r	.	.	.	.
.	.	4r	.	8c 8e	dee-	.	.	.
.	.	.	.	8c 8e	-dle	.	.	.
.	.	2aa-	woo!	8c 8e	lee-	.	.	.
.	.	.	.	8c 8e	-dle	.	.	.
.	.	.	.	4c 4e	lee!	.	.	.
=157	=157	=157	=157	=157	=157	=157	=157	=157
1B-M	B-:maj	1r	.	4d 4f 4b-	Freeze	.	.	.
.	.	.	.	[4d [4f [4b-	frame	.	.	.
.	.	.	.	8d] 8f] 8b-]	_	.	.	.
.	.	.	.	8e 8g 8cc	_	.	.	.
.	.	.	.	4d 4f 4b-	_	.	.	.
=158	=158	=158	=158	=158	=158	=158	=158	=158
1FM	F:maj	2r	.	2c 2f 2a	_	.	.	.
.	.	8r	.	8r	.	.	.	.
.	.	8A	It's	8A	It's	.	.	.
.	.	8e	like	8A	time	.	.	.
.	.	8c	a	8A	to	.	.	.
=159	=159	=159	=159	=159	=159	=159	=159	=159
1CM	C:maj	4c	freeze	4c 4e	Shoot	.	.	.
.	.	4r	.	4r	.	.	.	.
.	.	4c	freeze	4c 4e	shoot	.	.	.
.	.	4r	.	4r	.	.	.	.
=160	=160	=160	=160	=160	=160	=160	=160	=160
*	*	*clefG2	*	*	*	*	*	*
1CM	C:maj	[1gg	ah	4r	.	.	.	.
.	.	.	.	8c 8e	dee-	.	.	.
.	.	.	.	8c 8e	-dle	.	.	.
.	.	.	.	8c 8e	lee-	.	.	.
.	.	.	.	8c 8e	-dle	.	.	.
.	.	.	.	4c 4e	lee!	.	.	.
=161	=161	=161	=161	=161	=161	=161	=161	=161
1B-M	B-:maj	1gg_	_	4d 4f 4b-	Freeze	.	.	.
.	.	.	.	[4d [4f [4b-	frame	.	.	.
.	.	.	.	8d] 8f] 8b-]	_	.	.	.
.	.	.	.	8e 8g 8cc	_	.	.	.
.	.	.	.	4d 4f 4b-	_	.	.	.
=162	=162	=162	=162	=162	=162	=162	=162	=162
1FM	F:maj	1gg_	_	2c 2f 2a	_	.	.	.
.	.	.	.	8r	.	.	.	.
.	.	.	.	8A	It's	.	.	.
.	.	.	.	8A	time	.	.	.
.	.	.	.	8A	to	.	.	.
=163	=163	=163	=163	=163	=163	=163	=163	=163
.	.	.	.	4r	.	.	.	.
.	.	.	.	4c 4e	shoot	.	.	.
.	.	.	.	4r	.	.	.	.
=164	=164	=164	=164	=164	=164	=164	=164	=164
1CM	C:maj	2.gg]	_	4r	.	.	.	.
.	.	.	.	8c 8e	dee-	.	.	.
.	.	.	.	8c 8e	-dle	.	.	.
.	.	.	.	8c 8e	lee-	.	.	.
.	.	.	.	8c 8e	-dle	.	.	.
.	.	[4cc	_	4c 4e	lee!	.	.	.
=165	=165	=165	=165	=165	=165	=165	=165	=165
1B-M	B-:maj	4.cc]	_	4d 4f 4b-	Freeze	.	.	.
.	.	.	.	[4d [4f [4b-	frame	.	.	.
.	.	8r	.	.	.	.	.	.
.	.	2r	.	8d] 8f] 8b-]	_	.	.	.
.	.	.	.	8e 8g 8cc	_	.	.	.
.	.	.	.	4d 4f 4b-	_	.	.	.
=166	=166	=166	=166	=166	=166	=166	=166	=166
1FM	F:maj	1r	.	2c 2f 2a	_	.	.	.
.	.	.	.	8r	.	.	.	.
.	.	.	.	8A	It's	.	.	.
.	.	.	.	8A	time	.	.	.
.	.	.	.	8A	to	.	.	.
=167	=167	=167	=167	=167	=167	=167	=167	=167
1CM	C:maj	1r	.	4c 4e	Shoot	.	.	.
.	.	.	.	4r	.	.	.	.
.	.	.	.	4c 4e	shoot	.	.	.
.	.	.	.	4r	.	.	.	.
=168	=168	=168	=168	=168	=168	=168	=168	=168
1CM	C:maj	1r	.	4r	.	.	.	.
.	.	.	.	8c 8e	dee-	.	.	.
.	.	.	.	8c 8e	-dle	.	.	.
.	.	.	.	8c 8e	lee-	.	.	.
.	.	.	.	8c 8e	-dle	.	.	.
.	.	.	.	4c 4e	lee!	.	.	.
=169	=169	=169	=169	=169	=169	=169	=169	=169
1B-M	B-:maj	1r	.	4d 4f 4b-	Freeze	.	.	.
.	.	.	.	[4d [4f [4b-	frame!	.	.	.
.	.	.	.	8d] 8f] 8b-]	_	.	.	.
.	.	.	.	8e 8g 8cc	_	.	.	.
.	.	.	.	4d 4f 4b-	_	.	.	.
=170	=170	=170	=170	=170	=170	=170	=170	=170
1FM	F:maj	1r	.	1c; 1f 1a	_	.	.	.
1r;	1r	r;	.	r;	.	.	.	.
*-	*-	*-	*-	*-	*-	*-	*-	*-
!!!BillboardChartDate: 1982/03/20
!!!BillboardPeak: 4
!!!BillboardWeeksOnChart: 16
!!!COC: The J. Geils Band
!!!ENC: Nathaniel Condit-Schultz
!!!EST: Awating manual error checking and editing.
!!!OTL: Freeze-Frame
!!!RDF**chordsym: original McGill chord annotation + (implied pitch class set, with bass pitch in first position)
!!!RDF**harmony: **recip + pitch class of root + harmonic quality
!!!RDF**leadinstrument: original McGill primary instrumentation annotation
!!!RDF**phrase: newline = linebreak in original McGill transcription
!!!RDF**timestamp: McGill audio timestamp in seconds
!!!RDT: 2017/01/12/
!!!SampleActualRank: 18
!!!SampleID#: 1002
!!!SampleTargetRank: 19
!!!MBID: c20894c0-3f36-455e-9b04-721d7fcd5893